X: 10587
T: Double Lead Through
R: barndance
M: 4/4
K: Gmajor
|:d2|g2 d2 c2 A2|G2 G2 GA BG|E2 E2 F2 D2|G6:|
B2|A3d ^c2 d2|A3d ^c2 d2|A2 d2 e2 A2|f8|
A3d ^c2 d2|A3d ^c2 d2|A2 g2 f2 e2|d2 =c2 B2 A2|
G2 G2 GA BG|A2 A2 AB cA|Bc d2 cd e2|e2 d2 d2 ef|
g2 g2 gf e2|d2 d2 dc B2|AB c2 Bc d2|eg fe dc BA|
G2 G2 GA BG|A2 A2 AB cA|Bc d2 cd e2|e2 d2 d2 ef|
g2 g2 gf e2|d2 d2 dc B2|AB c2 Bc d2|e2 f2 g2||

